src/assets/media/svg/sprite/snapchat.svg

<svg width="24" height="24" viewBox="0 0 24 24"  xmlns="http://www.w3.org/2000/svg">
<path d="M11.9898 0.5H11.9893H11.9889C11.0274 0.500306 10.0908 0.692615 9.20518 1.07162C8.35508 1.43537 7.58999 1.95405 6.93118 2.61325C6.27325 3.27159 5.75547 4.03588 5.39225 4.88489C5.01457 5.76772 4.82251 6.7008 4.82133 7.65821C4.82076 8.12827 4.81098 8.58446 4.79212 9.02131L4.4167 8.93367C4.27895 8.90154 4.13731 8.88521 3.99582 8.88516C3.58725 8.88511 3.18421 9.02258 2.86095 9.27223C2.52371 9.53269 2.28721 9.90358 2.19513 10.3166C1.97595 11.2997 2.5213 12.2922 3.46636 12.6412L4.59052 13.0929C3.84614 15.3673 2.47354 15.8031 1.54924 16.0967C1.30398 16.1746 1.09213 16.2419 0.890432 16.3415C0.0867577 16.7385 0 17.4112 0 17.682C0 18.2006 0.246591 18.6739 0.69442 19.0146C0.917387 19.1842 1.1936 19.3242 1.53878 19.4425C2.00926 19.6037 2.55466 19.7061 2.99793 19.7881C3.01935 19.9516 3.05076 20.1272 3.1037 20.3042C3.32349 21.0393 3.78731 21.3685 4.13772 21.5151C4.4702 21.6543 4.81374 21.6704 5.04322 21.6704C5.26767 21.6704 5.50494 21.6529 5.75614 21.6344C6.02564 21.6145 6.30431 21.594 6.57923 21.594C7.00528 21.594 7.32244 21.6446 7.54879 21.7487C7.85959 21.8916 8.1892 22.0843 8.53817 22.2883C9.50968 22.8563 10.6108 23.5 12 23.5C13.3893 23.5 14.4903 22.8563 15.4618 22.2883C15.8108 22.0843 16.1404 21.8916 16.4513 21.7487C16.6776 21.6446 16.9948 21.594 17.4208 21.594C17.6957 21.594 17.9744 21.6146 18.2439 21.6344C18.4951 21.6529 18.7323 21.6704 18.9568 21.6704C19.1863 21.6704 19.5298 21.6543 19.8623 21.5151C20.2127 21.3685 20.6765 21.0393 20.8963 20.3042C20.9492 20.1272 20.9807 19.9516 21.0021 19.7881C21.4453 19.706 21.9908 19.6037 22.4612 19.4425C22.8065 19.3242 23.0826 19.1842 23.3056 19.0146C23.7534 18.6739 24 18.2006 24 17.682C24 17.4112 23.9132 16.7385 23.1095 16.3415C22.9078 16.2419 22.6959 16.1746 22.4507 16.0967C21.5264 15.8032 20.1538 15.3673 19.4094 13.093L20.5335 12.6413C21.4785 12.2923 22.0239 11.2997 21.8048 10.3166C21.7127 9.90358 21.4762 9.53269 21.1389 9.27223C20.8157 9.02264 20.4128 8.88516 20.0043 8.88516C19.8628 8.88516 19.7212 8.90149 19.5833 8.93362L19.2078 9.02126C19.189 8.58446 19.1792 8.12827 19.1786 7.65816C19.1774 6.69999 18.9838 5.76599 18.6031 4.88198C18.2377 4.03338 17.7171 3.26929 17.0559 2.61091C16.3946 1.95257 15.6274 1.43446 14.7756 1.07101C13.8882 0.692462 12.951 0.500357 11.9898 0.5Z" />
</svg>

<svg xmlns="http://www.w3.org/2000/svg" width="24" height="24"><path d="M11.99.5c-.962 0-1.898.193-2.784.572a7.2 7.2 0 0 0-2.274 1.541 7.2 7.2 0 0 0-1.539 2.272 7 7 0 0 0-.57 2.773q-.002.706-.03 1.363l-.375-.087a1.86 1.86 0 0 0-1.556.338c-.337.26-.574.632-.666 1.045a2.014 2.014 0 0 0 1.271 2.324l1.125.452c-.745 2.274-2.117 2.71-3.042 3.004a5 5 0 0 0-.659.244c-.803.397-.89 1.07-.89 1.341 0 .519.247.992.694 1.333.223.17.5.31.845.427.47.162 1.016.264 1.459.346a3 3 0 0 0 .106.516c.22.735.683 1.065 1.034 1.211.332.14.676.155.905.155.225 0 .462-.017.713-.036.27-.02.548-.04.823-.04.426 0 .743.05.97.155.31.143.64.335.99.54.97.567 2.072 1.211 3.461 1.211 1.39 0 2.49-.644 3.462-1.212.349-.204.678-.396.99-.54.226-.103.543-.154.969-.154.275 0 .553.02.823.04.251.019.488.036.713.036.23 0 .573-.016.905-.155.35-.146.815-.476 1.034-1.21a3.3 3.3 0 0 0 .106-.517c.443-.082.989-.184 1.46-.346.345-.118.62-.258.844-.427.447-.341.694-.814.694-1.333 0-.27-.087-.944-.89-1.34-.202-.1-.414-.167-.66-.245-.924-.294-2.296-.73-3.04-3.004l1.124-.452a2.014 2.014 0 0 0 1.27-2.324 1.83 1.83 0 0 0-.665-1.045 1.87 1.87 0 0 0-1.556-.338l-.375.087a33 33 0 0 1-.03-1.363 7 7 0 0 0-.575-2.776 7.2 7.2 0 0 0-1.547-2.271 7.3 7.3 0 0 0-2.28-1.54A7.1 7.1 0 0 0 11.99.5"/></svg>
